docs/assets/img/logo.svg

<svg width="109" height="48" viewBox="0 0 109 48" fill="none" xmlns="http://www.w3.org/2000/svg">
<path d="M9.08831 9.08831C13.7203 4.45633 16.0363 2.14034 18.6199 1.07017C22.0647 -0.356723 25.9353 -0.356723 29.3801 1.07017C31.9637 2.14034 34.2797 4.45633 38.9117 9.08831C43.5437 13.7203 45.8597 16.0363 46.9298 18.6199C48.3567 22.0647 48.3567 25.9353 46.9298 29.3801C45.8597 31.9637 43.5437 34.2797 38.9117 38.9117C34.2797 43.5437 31.9637 45.8597 29.3801 46.9298C25.9353 48.3567 22.0647 48.3567 18.6199 46.9298C16.0363 45.8597 13.7203 43.5437 9.08831 38.9117C4.45633 34.2797 2.14034 31.9637 1.07017 29.3801C-0.356723 25.9353 -0.356723 22.0647 1.07017 18.6199C2.14034 16.0363 4.45633 13.7203 9.08831 9.08831Z" fill="#111111"/>
<path d="M13.4558 24C13.4558 20.7247 13.4558 19.087 13.9909 17.7952C14.7044 16.0728 16.0728 14.7044 17.7952 13.9909C19.087 13.4559 20.7247 13.4559 24 13.4559H34.5442V34.5442H24C20.7247 34.5442 19.087 34.5442 17.7952 34.0091C16.0728 33.2956 14.7044 31.9272 13.9909 30.2048C13.4558 28.913 13.4558 27.2753 13.4558 24Z" fill="white"/>
<path d="M24 13.4559H31.0294V20.4853C31.0294 16.603 27.8823 13.4559 24 13.4559Z" fill="#111111"/>
<path d="M31.0294 27.5147V34.5442H24C27.8823 34.5442 31.0294 31.397 31.0294 27.5147Z" fill="#111111"/>
<path d="M73.554 32.301H75.66L68.883 16.101H66.777L60 32.301H62.079L64.104 27.306H71.529L73.554 32.301ZM65.481 23.877C66.237 21.987 67.101 19.773 67.749 18.018H67.884C68.505 19.746 69.396 21.987 70.152 23.877L70.881 25.659H64.752L65.481 23.877Z" fill="#111111"/>
<path d="M78.3033 32.301V25.416C78.3033 22.797 79.4913 21.771 82.0023 21.771H83.0283V19.746H82.1643C80.0853 19.746 78.8163 20.826 78.3573 23.391H78.3033V19.746H76.4403V32.301H78.3033Z" fill="#111111"/>
<path d="M93.5958 24.66L95.3778 24.309C94.8108 21.258 92.9748 19.449 89.4378 19.449C85.7928 19.449 83.0658 21.879 83.0658 26.01C83.0658 30.141 85.6038 32.598 89.5458 32.598C92.9748 32.598 94.8108 30.762 95.4318 27.657L93.6498 27.252C93.1098 29.277 92.2728 30.87 89.4918 30.87C86.7378 30.87 84.9558 29.061 84.9558 26.037C84.9558 22.824 86.7918 21.177 89.4108 21.177C91.8678 21.177 93.1098 22.473 93.5958 24.66Z" fill="#111111"/>
<path d="M99.0015 24.822C99.0015 22.5 100.46 21.15 102.863 21.15C105.428 21.15 106.211 22.959 106.211 24.822V32.301H108.074V24.417C108.074 21.717 106.967 19.449 103.511 19.449C101.243 19.449 99.5685 20.664 99.0285 23.121H99.0015V15.75H97.1385V32.301H99.0015V24.822Z" fill="#111111"/>
</svg>

<svg width="109" height="48" fill="none" xmlns="http://www.w3.org/2000/svg"><path d="M9.088 9.088C13.72 4.456 16.036 2.14 18.62 1.07a14.059 14.059 0 0110.76 0c2.584 1.07 4.9 3.386 9.532 8.018 4.632 4.632 6.948 6.948 8.018 9.532a14.059 14.059 0 010 10.76c-1.07 2.584-3.386 4.9-8.018 9.532-4.632 4.632-6.948 6.948-9.532 8.018a14.059 14.059 0 01-10.76 0c-2.584-1.07-4.9-3.386-9.532-8.018C4.456 34.28 2.14 31.964 1.07 29.38a14.059 14.059 0 010-10.76c1.07-2.584 3.386-4.9 8.018-9.532z" fill="#111"/><path d="M13.456 24c0-3.275 0-4.913.535-6.205a7.03 7.03 0 013.804-3.804c1.292-.535 2.93-.535 6.205-.535h10.544v21.088H24c-3.275 0-4.913 0-6.205-.535a7.03 7.03 0 01-3.804-3.804c-.535-1.292-.535-2.93-.535-6.205z" fill="#fff"/><path d="M24 13.456h7.03v7.03a7.03 7.03 0 00-7.03-7.03zm7.03 14.059v7.03H24a7.03 7.03 0 007.03-7.03zm42.524 4.786h2.106l-6.777-16.2h-2.106L60 32.301h2.079l2.025-4.995h7.425l2.025 4.995zm-8.073-8.424c.756-1.89 1.62-4.104 2.268-5.859h.135c.621 1.728 1.512 3.969 2.268 5.859l.729 1.782h-6.129l.729-1.782zm12.822 8.424v-6.885c0-2.619 1.188-3.645 3.7-3.645h1.025v-2.025h-.864c-2.079 0-3.348 1.08-3.807 3.645h-.054v-3.645H76.44v12.555h1.863zm15.293-7.641l1.782-.351c-.567-3.051-2.403-4.86-5.94-4.86-3.645 0-6.372 2.43-6.372 6.561s2.538 6.588 6.48 6.588c3.429 0 5.265-1.836 5.886-4.941l-1.782-.405c-.54 2.025-1.377 3.618-4.158 3.618-2.754 0-4.536-1.809-4.536-4.833 0-3.213 1.836-4.86 4.455-4.86 2.457 0 3.699 1.296 4.185 3.483zm5.405.162c0-2.322 1.459-3.672 3.862-3.672 2.565 0 3.348 1.809 3.348 3.672v7.479h1.863v-7.884c0-2.7-1.107-4.968-4.563-4.968-2.268 0-3.942 1.215-4.483 3.672h-.027V15.75h-1.863v16.551h1.863v-7.479z" fill="#111"/></svg>.3573 23.391H78.3033V19.746H76.4403V32.301H78.3033Z" fill="#111111"/>
<path d="M93.5958 24.66L95.3778 24.309C94.8108 21.258 92.9748 19.449 89.4378 19.449C85.7928 19.449 83.0658 21.879 83.0658 26.01C83.0658 30.141 85.6038 32.598 89.5458 32.598C92.9748 32.598 94.8108 30.762 95.4318 27.657L93.6498 27.252C93.1098 29.277 92.2728 30.87 89.4918 30.87C86.7378 30.87 84.9558 29.061 84.9558 26.037C84.9558 22.824 86.7918 21.177 89.4108 21.177C91.8678 21.177 93.1098 22.473 93.5958 24.66Z" fill="#111111"/>
<path d="M99.0015 24.822C99.0015 22.5 100.46 21.15 102.863 21.15C105.428 21.15 106.211 22.959 106.211 24.822V32.301H108.074V24.417C108.074 21.717 106.967 19.449 103.511 19.449C101.243 19.449 99.5685 20.664 99.0285 23.121H99.0015V15.75H97.1385V32.301H99.0015V24.822Z" fill="#111111"/>
</svg>
